X:1
T:I'vo piangendo
T:I'vo piangendo
T:Piero Benedetti
T:Source : Musiche di P.Benedetti---Libro secondo---Venetia---R.Amadino---1613. Editor : André Vierendeels (15/03/16).
T:Sonetto Spirituale
T:Notes : Original clefs : C1, F4 Editorial accidentals above the staff Figures in BC are notated in original print Composer called "Pietro" in ths print Text by Francesco Petrarca (Canzionere) 
T:©
T:©
T:©
T:©
T:©
C:Piero Benedetti
Z:©
%%score 1 2
L:1/8
Q:1/4=120
M:4/4
K:F
V:1 treble nm="Soprano" snm="S"
V:2 bass nm="BC" snm="BC"
V:1
 z2 z G G3 G | G6 G2 | z GGA B2 c<A | B<G A4 A2 | z ^F F2 z FFG | A4 B4 | B2 z D D4- | D4 D4 | %8
w: I' vo pian-|gen- do|i miei pas- sa- ti _|_ _ tem- pi,|i quai po- s'in a-|mar co-|sa mor- ta-|* le,|
 z2 d2 BA B2 | G/A/B/c/ d/e/f c4 | c2 z2 z d B>G | G2- GA/B/ A3 G- | A4 z2 cd | B2 AG A4 | %14
w: sen- za le- var-|mia _ _ _ _ _ _ vo-|lo, ab- bien- dio|l'a- * * * * le,|_ per dar|for- se di me|
 z d d4 c/B/A/G/ | A8 | G8 | d2- dA A2 AA | c6 A2 | z c c3 B G2 | G6 ^F2 | z2 B>c _e4 | %22
w: non bas- si'es- * * *|sem-|pi,|tu _ che- ve- d'i miei|ma- li|in- de- gni et|em- pi,|re del Ciel|
"^-natural" z2 dA BA B>F | E4 D4 | z dBA B4 | B2 cc c3 d | d6 A2 | z2 A4 Bc | G4 G4 | B2 c2 d4- | %30
w: in- vi- si- bil' im- mor-|ta- le,|soc- cor- ri'a l'al-|ma des- vi- a- ta'e|fra- le,|e'l suo di-|fet- to|di tua gra-|
 d4- dA B/c/B | A8 | G8 | z2 z d GABc | A2 G2 z Bcd | _e4 c2 z2 | F3 E E4 | E4 A3 B | c8 | B8 | %40
w: * * ti- a _ _|dem-|pi,|si che s'io vis- s'in|guer- ra et in tem-|pe- sta,|mo- ra'in pa-|ce et in|por-|to,|
 z ABc d2 A>B | ^F4 F2 z A | B4 z GBc | d6 B/A/B/G/ | A8 | G8 | z2 ^FF F2 FF | A4 ^F2 z2 | %48
w: et se la stan- za fu|va- na, al-|men sia la par-|ti- ta'ho- * * *|ne-|sta.|A quel po- co di|vi- ver|
 GA B4 A2 | z2 F2 E3 D | E4 z A B2 | ^F2 GA B4 | A2 z2 d3 B | G4 z2 GA | B4 z G B>G | d8 | d8 |] %57
w: che m'a- van- za|et al mo-|rir, de- gni'es-|ser tua man pre-|sta: Tu sai|ben che'in al-|trui non o spe-|ran-|za.|
V:2
 G,,8 | =B,,4 C,4 | C,4 G,4 |"^#" G,,2 D,4 D,2 | D,8 | D,6 G,2 | G,,8 |"^4""^#" D,4 D,4 | %8
 B,4 B,,4- | B,,4 F,4 | F,4 G,4 |"^6" _E,4 E,4 |"^#" D,4 F,4 |"^#" G,4 D,4 |"^#" D,4 =B,,4 | %15
"^4""^#" D,4 D,4 |"^-natural" G,,8 | G,4 _E,4- |"^-natural""^#" E,4 ^F,4- | F,4- F,4 | ^C,4 D,4 | %21
 G,4 C,D, _E,2 |"^-natural" B,,C, D,2 G,,4 |"^4""^#""^#" A,,2 A,,2 D,4 | G,4- G,F,_E,D, | %25
 _E,4 ^F,4 |"^4""^#" ^F,2 =B,,2 D,2 D,2 |"^-natural" D,4 G,4 | =B,,4 C,4 | G,2 A,2 B,4 | %30
 D,E,F,B,, C,4 |"^4""^#" D,4 D,4 |"^-natural" G,,8 | G,,8- | G,,4 _E,4 |"^b" C,8 | %36
"^-natural""^#" D,2 A,,4 A,,2 |"^#" A,,4 F,4 |"^4""^3" F,4 F,4 | B,,8 |"^#" D,8 | D,8 | G,4 G,4- | %43
"^#""^#" G,G,, B,,C, D,2 D,2 |"^#""^4" D,4 D,4 | G,,8 | D,8 | D,8 |"^#" C,4 D,4 | %49
"^-natural" D,4 B,,4 |"^#""^#" A,,4 A,2 ^F,2 | ^F,4 G,4 |"^-natural" D,6 G,,2 | C,4 C,4 | G,8 | %55
"^#""^4" G,,2 B,,>G,, D,2 D,2 | G,,8 |] %57

